X:21
T:Kronprinsen (Bingsjo)
Z:2000 Brian Wilson 
M:3/4
L:1/16
K:D
|: D2(DF) (AB)(AF) A2d2 \
| f4 d6 B2 \
| A2(Ac) (ef)(ec) e2f2 \
| g4 (ef)ec (AB)(AF) |
| D2(DF) (AB)(AF) A2d2 \
| f4 d6 B2 \
| A2(Ac) (ef)(ec) e2f2 \
| g2fg e8 :|
P:B
|: a4 (a2^ga) b3a \
| (a2g2) g2fg a2(g2 \
| f2)ef d4 f2a2 \
| efed cdec A4 |
| a4 (a2^ga) b3a \
| (a2g2) g2fg a2(g2 \
| f2)ef d4 f2a2 \
| (ef)ec d8 :|
